X:150 
T:Northern Slope* (reel), The
F:file ID: cre.5/150north_s
B:CRE5.136 (gan ainm)
N:CRE's mm 3 & 7: /d2FB a2gb/ - possible "scribal error"!
M:4/4
Q:180
R:reel
K:D
(3cde|d2FB A2FA|Bcde fdBc|"3"d2FB [A2a2]gb|egfe d2Bc|
d2FB A2FA|Bcde fdBc|"7"d2FB [A2a2]gb|e2fe d2:|
AB|:defg afda|g2g2 edBA|defg afda|gefe d2Bc|
[1 defg afda|g2g2 edBA|defg afd/e/d|gefe d2Bc:|
[2 defg afda|gefe fdBc|defg agaf|egfe d4|]

%%%

